src/pos-icons/gesture-two-tap.svg

<svg height="24" viewBox="0 0 24 24" width="24" xmlns="http://www.w3.org/2000/svg"><path d="m19 15.14v6.36c-.03.82-.68 1.47-1.5 1.5h-6.5c-.38 0-.74-.15-1-.43l-4.9-4.2.74-.77c.19-.21.46-.32.74-.32h.22l3.2 1.72v-10a1 1 0 0 1 1-1 1 1 0 0 1 1 1v-2a1 1 0 0 1 1-1 1 1 0 0 1 1 1v5l4.15 1.84c.51.23.85.74.85 1.3m-4-4.69v-1.21-.01c.23-.2.42-.44.57-.69.27-.45.43-.98.43-1.54a3 3 0 0 0 -3-3c-.79 0-1.5.31-2.05.81l-.14.14c-.13.14-.25.29-.35.45s-.19.34-.26.52c-.03.08-.05.14-.07.21-1.23.37-2.13 1.52-2.13 2.87 0 .7.24 1.34.64 1.85.1.15.23.26.36.38v.01 1.22c-1.2-.69-2-1.96-2-3.46 0-1.62.97-3 2.35-3.65.65-1.38 2.03-2.35 3.65-2.35a4 4 0 0 1 4 4c0 1.5-.8 2.77-2 3.46z"/></svg>

<?xml version="1.0" encoding="UTF-8"?><!DOCTYPE svg PUBLIC "-//W3C//DTD SVG 1.1//EN" "http://www.w3.org/Graphics/SVG/1.1/DTD/svg11.dtd"><svg xmlns="http://www.w3.org/2000/svg" xmlns:xlink="http://www.w3.org/1999/xlink" version="1.1" id="mdi-gesture-two-tap" width="24" height="24" viewBox="0 0 24 24"><path d="M19,15.14V21.5C18.97,22.32 18.32,22.97 17.5,23H11C10.62,23 10.26,22.85 10,22.57L5.1,18.37L5.84,17.6C6.03,17.39 6.3,17.28 6.58,17.28H6.8L10,19V9A1,1 0 0,1 11,8A1,1 0 0,1 12,9V7A1,1 0 0,1 13,6A1,1 0 0,1 14,7V12L18.15,13.84C18.66,14.07 19,14.58 19,15.14M15,10.45V9.24L15,9.23C15.23,9.03 15.42,8.79 15.57,8.54C15.84,8.09 16,7.56 16,7A3,3 0 0,0 13,4C12.21,4 11.5,4.31 10.95,4.81L10.81,4.95C10.68,5.09 10.56,5.24 10.46,5.4C10.36,5.56 10.27,5.74 10.2,5.92C10.17,6 10.15,6.06 10.13,6.13C8.9,6.5 8,7.65 8,9C8,9.7 8.24,10.34 8.64,10.85C8.74,11 8.87,11.11 9,11.23V11.24L9,12.46V12.46C7.8,11.77 7,10.5 7,9C7,7.38 7.97,6 9.35,5.35C10,3.97 11.38,3 13,3A4,4 0 0,1 17,7C17,8.5 16.2,9.77 15,10.46V10.45Z" /></svg>
